flaticon/gastronomy/baguette.svg

<svg xmlns="http://www.w3.org/2000/svg" width="32" height="32" viewBox="0 0 24 24">
    <path d="M 23.238281 0.496094 C 22.898438 0.15625 22.421875 -0.00390625 21.847656 0 C 20.355469 0.0351562 18.199219 1.320312 16.472656 3.203125 C 16.164062 3.355469 15.269531 3.824219 14.847656 4.246094 C 14.742188 4.351562 14.648438 4.460938 14.558594 4.570312 C 14.554688 4.574219 14.550781 4.578125 14.550781 4.582031 C 14.046875 5.195312 13.730469 5.917969 13.636719 6.671875 C 12.742188 6.78125 11.890625 7.203125 11.214844 7.882812 C 11.113281 7.984375 11.015625 8.09375 10.925781 8.203125 C 10.914062 8.21875 10.902344 8.230469 10.890625 8.246094 C 10.402344 8.851562 10.097656 9.5625 10.003906 10.304688 C 9.199219 10.40625 8.433594 10.757812 7.792969 11.320312 C 7.777344 11.332031 7.757812 11.335938 7.746094 11.351562 C 7.71875 11.378906 7.695312 11.40625 7.667969 11.433594 C 7.640625 11.460938 7.609375 11.488281 7.582031 11.515625 C 6.902344 12.191406 6.480469 13.042969 6.371094 13.941406 C 5.472656 14.050781 4.625 14.472656 3.945312 15.148438 C 3.902344 15.195312 3.863281 15.242188 3.820312 15.289062 C 3.808594 15.300781 3.792969 15.304688 3.78125 15.316406 C 3.289062 15.808594 2.988281 16.308594 2.867188 16.820312 C 1.125 18.648438 -0.890625 21.792969 0.523438 23.207031 C 1.039062 23.722656 1.902344 24 2.925781 24 C 3.191406 24 3.46875 23.980469 3.757812 23.941406 C 5.183594 23.746094 6.566406 23.074219 7.542969 22.097656 L 21.882812 7.753906 C 22.867188 6.773438 23.582031 5.355469 23.847656 3.863281 C 24.109375 2.398438 23.878906 1.140625 23.238281 0.496094 Z M 23.039062 3.722656 C 22.804688 5.050781 22.171875 6.308594 21.304688 7.175781 L 6.960938 21.515625 C 6.109375 22.371094 4.902344 22.957031 3.644531 23.128906 C 2.554688 23.277344 1.558594 23.082031 1.105469 22.628906 C 0.429688 21.957031 1.253906 19.929688 2.917969 17.984375 C 3.117188 18.582031 3.582031 19.152344 4.3125 19.679688 C 4.386719 19.734375 4.46875 19.757812 4.554688 19.757812 C 4.679688 19.757812 4.804688 19.699219 4.886719 19.589844 C 5.019531 19.40625 4.976562 19.148438 4.792969 19.015625 C 4.0625 18.488281 3.667969 17.945312 3.625 17.410156 C 3.621094 17.332031 3.625 17.253906 3.632812 17.175781 C 3.71875 17.0625 3.796875 16.941406 3.847656 16.800781 L 3.847656 16.796875 C 4.011719 16.359375 4.207031 16.046875 4.527344 15.730469 C 5.074219 15.179688 5.789062 14.832031 6.515625 14.75 C 6.683594 15.277344 7.089844 15.90625 8.046875 16.429688 C 8.105469 16.464844 8.175781 16.480469 8.242188 16.480469 C 8.386719 16.480469 8.527344 16.402344 8.601562 16.265625 C 8.710938 16.070312 8.636719 15.820312 8.4375 15.710938 C 7.722656 15.320312 7.320312 14.835938 7.238281 14.269531 C 7.144531 13.597656 7.511719 12.785156 8.238281 12.023438 C 8.75 11.542969 9.390625 11.226562 10.046875 11.128906 C 10.160156 11.976562 10.601562 12.6875 11.296875 13.136719 C 11.367188 13.179688 11.441406 13.203125 11.519531 13.203125 C 11.652344 13.203125 11.785156 13.136719 11.863281 13.015625 C 11.988281 12.824219 11.933594 12.570312 11.742188 12.449219 C 11.089844 12.027344 10.894531 11.402344 10.84375 10.953125 C 10.765625 10.203125 11.03125 9.382812 11.546875 8.734375 C 11.550781 8.734375 11.554688 8.730469 11.554688 8.726562 C 11.628906 8.632812 11.707031 8.546875 11.792969 8.460938 C 12.328125 7.925781 13.023438 7.578125 13.730469 7.488281 C 13.859375 8.320312 14.300781 9.015625 14.988281 9.449219 C 15.054688 9.492188 15.132812 9.515625 15.207031 9.515625 C 15.34375 9.515625 15.476562 9.445312 15.554688 9.324219 C 15.675781 9.132812 15.617188 8.878906 15.425781 8.757812 C 14.914062 8.429688 14.589844 7.894531 14.519531 7.25 C 14.425781 6.394531 14.765625 5.488281 15.425781 4.828125 C 15.652344 4.601562 16.144531 4.300781 16.585938 4.066406 C 16.578125 4.199219 16.582031 4.324219 16.59375 4.429688 C 16.675781 5.121094 17.117188 5.722656 17.863281 6.175781 C 17.929688 6.21875 18.003906 6.238281 18.074219 6.238281 C 18.214844 6.238281 18.351562 6.167969 18.425781 6.039062 C 18.542969 5.84375 18.480469 5.59375 18.289062 5.476562 C 17.921875 5.253906 17.472656 4.878906 17.40625 4.332031 C 17.347656 3.832031 17.621094 3.257812 18.203125 2.675781 C 18.207031 2.671875 18.207031 2.667969 18.210938 2.664062 C 19.507812 1.5625 20.894531 0.84375 21.867188 0.820312 C 21.878906 0.820312 21.894531 0.820312 21.910156 0.820312 C 22.234375 0.820312 22.484375 0.90625 22.65625 1.078125 C 23.097656 1.515625 23.246094 2.554688 23.039062 3.722656 Z M 23.039062 3.722656"/>
</svg>

<svg xmlns="http://www.w3.org/2000/svg" width="32" height="32" viewBox="0 0 24 24">
    <path d="M23.238.496c-.34-.34-.816-.5-1.39-.496-1.493.035-3.649 1.32-5.375 3.203-.309.152-1.203.621-1.625 1.043-.106.106-.2.215-.29.324-.003.004-.007.008-.007.012a4.094 4.094 0 0 0-.914 2.09 4.133 4.133 0 0 0-2.422 1.21c-.102.102-.2.212-.29.321-.01.016-.023.027-.034.043a4.1 4.1 0 0 0-.887 2.059 4.14 4.14 0 0 0-2.211 1.015c-.016.012-.035.016-.047.032l-.078.082c-.027.027-.059.054-.086.082a4.132 4.132 0 0 0-1.21 2.425c-.9.11-1.747.532-2.427 1.207l-.125.141c-.011.012-.027.016-.039.027-.492.493-.793.993-.914 1.504C1.125 18.648-.89 21.793.523 23.207c.516.516 1.38.793 2.403.793.265 0 .543-.02.832-.059 1.426-.195 2.808-.867 3.785-1.843l14.34-14.344c.984-.98 1.699-2.399 1.965-3.89.261-1.466.03-2.723-.61-3.368zm-.199 3.227c-.234 1.328-.867 2.586-1.734 3.453L6.96 21.516c-.852.855-2.059 1.441-3.316 1.613-1.09.148-2.086-.047-2.54-.5-.675-.672.149-2.7 1.813-4.645.2.598.664 1.168 1.394 1.696a.416.416 0 0 0 .574-.09.412.412 0 0 0-.093-.574c-.73-.528-1.125-1.07-1.168-1.606-.004-.078 0-.156.008-.234a1.42 1.42 0 0 0 .215-.375v-.004c.164-.438.359-.75.68-1.067a3.37 3.37 0 0 1 1.988-.98c.168.527.574 1.156 1.53 1.68a.41.41 0 0 0 .39-.719c-.713-.39-1.116-.875-1.198-1.441-.093-.672.274-1.485 1-2.247a3.408 3.408 0 0 1 1.809-.894c.113.848.555 1.559 1.25 2.008a.41.41 0 0 0 .445-.688c-.652-.422-.847-1.047-.898-1.496-.078-.75.187-1.57.703-2.219a3.386 3.386 0 0 1 2.184-1.246c.128.832.57 1.528 1.257 1.961a.41.41 0 0 0 .219.067.411.411 0 0 0 .219-.758c-.512-.328-.836-.863-.906-1.508-.094-.855.246-1.762.906-2.422.226-.226.719-.527 1.16-.762-.008.133-.004.258.008.364.082.691.523 1.293 1.27 1.746a.403.403 0 0 0 .563-.137.41.41 0 0 0-.138-.562c-.367-.223-.816-.598-.883-1.145-.058-.5.215-1.074.797-1.656.004-.004.004-.008.008-.012C19.508 1.562 20.895.844 21.867.82h.043c.324 0 .574.086.746.258.442.438.59 1.477.383 2.645zm0 0"/>
</svg>
